X: 36
T: Shoe the Donkey / Put Your Little Foot
O: Irish Mazurka
M: 3/4
L: 1/8
K: G
"^A"[|] DG |\
"G"B2 B2 DG | B2 B2 DG | B2 c2 B2 | "D7"A4 DF |\
A2 A2 DF | A2 A2 DF | A2 B2 A2 | "G"G4 :|
"^B"|: "G"Bc |\
d2 g2 f2 | "Am"A4 AB | "D7"c2 e2 d2 | "G"B4 Bc "^I"|\
B2 A2 B2 | "Am"c4 cd |[1 "D7"e2 d2 c2 | "G"B4 :|\
[2 "D7"e2 d2 F2 | "G"G4 |]


